!!!!SEGMENT: pl-sa--575-a-ix-55--015_anonim--keyboard-piece.krn
!!!cenid: 18xx:629
!!!COM: Anonim
!!!COM-rismID: pe30004985
!!!CDT:
!!!CNT:
!!!OTL: [Keyboard piece]
!!!PDT:
!!!AGN: Secular
!!!SMS-siglum: PL-SA
!!!SMS-shelfmark: 575/A IX 55
!!!SMS-shelfwork: 015 W
!!!SMS-variant:
!!!SMS-altvar:
!!!NIFC-rismSourceID: 1001109858
!!!NIFC-rismChildID: 1001109858
!!!NIFC-islandoraID:
!!!URL-pdf-islandora:
!!!URL-scan: https://bc.bdsandomierz.pl/dlibra/publication/1381/edition/1349/content @EN{Scan in the Sandomierz Diocese Digital Library} @PL{Skany w portalu Cyfrowa Biblioteka Diecezjalna w Sandomierzu}
!!!ONB-nifc: Str. 6, pięciolinie 8-9 od zmiany metrum. Uwaga: tylko partia prawej ręki
!!!AIN: 1 piano
!!!key:
**kern
*part1
*staff1
*Ipiano
*I"Piano
*clefG2
*k[b-]
*g:
*M2/4
=1
4cc\
8aa\L
8ff\J
=2
4dd\
8bb-\L
8gg\J
=3
8ee\L
8cc\J
8dd\L
8ee\J
!LO:LB:g=original
=4
8ff\L
8aa\J
4ccc\
=5
4cc\
8aa\L
8ff\J
=6
4dd\
8bb-\L
8gg\J
=7
8ee\L
8cc\J
8dd\L
8ee\J
=8
4ff\
4r
!LO:TX:a:t=P:problem=w źródle skreślona kreska taktowa; poprawka skryptora
=9
4gg\
4ccc\
=10
4aa\
4ff\
=11
8ee\L
8cc\J
8dd\L
8ee\J
=12
8ff\L
8aa\J
4ccc\
=13
4gg\
4ccc\
=14
4aa\
4ff\
=15
8ee\L
8cc\J
8dd\L
8ee\J
=16
4ff\
4r
!LO:TX:a:t=P:problem=W źródle brak końcowej kreski taktowej
==
*-
!!!RDF**kern: > = above
!!!RDF**kern: < = below
!!!EED: Wojciech Jakubiak-Danek
!!!EEV: 2020-12-10
!!!ENC: Marcin Jachim
!!!END: 2020-06-19
!!!YEC: Copyright 2022 Narodowy Instytut Fryderyka Chopina (https://polishscores.org)
!!!YEM: License CC-BY-4.0 (https://creativecommons.org/licenses/by/4.0)
